img/icons/medida.svg

<svg width="15" height="15" viewBox="0 0 15 15" fill="none" xmlns="http://www.w3.org/2000/svg">
<g clip-path="url(#clip0)">
<path d="M5.11608 7.36349C6.35895 7.36349 7.37255 6.60025 7.37255 5.6652C7.37255 4.73003 6.36197 3.9668 5.11608 3.9668C3.8702 3.9668 2.85962 4.73003 2.85962 5.6652C2.85962 6.60025 3.87322 7.36349 5.11608 7.36349ZM5.11608 4.57005C6.02102 4.57005 6.76919 5.07088 6.76919 5.66509C6.76919 6.25941 6.01198 6.76013 5.11608 6.76013C4.22008 6.76013 3.46287 6.25941 3.46287 5.66509C3.46287 5.07088 4.22008 4.56704 5.11608 4.56704V4.57005Z" fill="#1E1A10"/>
<path d="M14.6816 8.80256H10.229V5.66214C10.229 3.5988 7.93336 1.91858 5.10075 1.91858C2.26804 1.91858 -0.0275879 3.5988 -0.0275879 5.66214V9.37267C-0.0275879 11.2731 1.91816 12.8418 4.42498 13.0801H4.47631C4.68438 13.0983 4.89558 13.1133 5.10979 13.1133H14.6816C14.8481 13.1133 14.9832 12.9782 14.9832 12.8116V9.10413C14.9832 8.93769 14.8481 8.80256 14.6816 8.80256ZM5.11581 2.52484C7.60446 2.52484 9.64079 3.93361 9.64079 5.66526C9.64079 7.3968 7.61661 8.80557 5.11581 8.80557C2.61501 8.80557 0.590834 7.3968 0.590834 5.66515C0.590834 3.93361 2.63008 2.52484 5.11581 2.52484ZM9.64079 7.42391V8.80256H7.89107C8.57405 8.49302 9.16988 8.01942 9.62562 7.42391H9.64079ZM14.3799 12.51H13.7765V10.9835C13.7765 10.8171 13.6414 10.6818 13.4749 10.6818C13.3084 10.6818 13.1733 10.8169 13.1733 10.9835V12.513H11.9665V11.6834C11.9665 11.5168 11.8314 11.3817 11.6649 11.3817C11.4983 11.3817 11.3632 11.5168 11.3632 11.6834V12.513H10.1566V11.6834C10.1566 11.5168 10.0214 11.3817 9.8549 11.3817C9.68835 11.3817 9.55322 11.5168 9.55322 11.6834V12.513H8.3465V10.9835C8.3465 10.8171 8.21137 10.6818 8.04482 10.6818C7.87838 10.6818 7.74314 10.8169 7.74314 10.9835V12.513H6.58785V11.6834C6.58785 11.5168 6.45261 11.3817 6.28617 11.3817C6.11962 11.3817 5.98449 11.5168 5.98449 11.6834V12.513H5.1156C5.00102 12.513 4.88945 12.513 4.77777 12.513V11.6834C4.77777 11.5168 4.64264 11.3817 4.47609 11.3817C4.30954 11.3817 4.17441 11.5168 4.17441 11.6834V12.4406C2.13839 12.1389 0.605896 10.878 0.605896 9.36966V7.42391C1.46865 8.60341 3.16705 9.40581 5.13088 9.40581H14.3799V12.51Z" fill="#1E1A10"/>
</g>
<defs>
<clipPath id="clip0">
<rect width="15" height="15" fill="white"/>
</clipPath>
</defs>
</svg>

<svg width="15" height="15" fill="none" xmlns="http://www.w3.org/2000/svg"><g clip-path="url(#clip0)" fill="#1E1A10"><path d="M5.116 7.363c1.243 0 2.257-.763 2.257-1.698 0-.935-1.011-1.698-2.257-1.698-1.246 0-2.256.763-2.256 1.698 0 .935 1.013 1.698 2.256 1.698zm0-2.793c.905 0 1.653.5 1.653 1.095 0 .594-.757 1.095-1.653 1.095s-1.653-.5-1.653-1.095c0-.594.757-1.098 1.653-1.098v.003z"/><path d="M14.682 8.803h-4.453v-3.14c0-2.064-2.296-3.744-5.128-3.744-2.833 0-5.129 1.68-5.129 3.743v3.71c0 1.901 1.946 3.47 4.453 3.708h.051c.208.018.42.033.634.033h9.572a.302.302 0 00.301-.301V9.104a.302.302 0 00-.301-.301zM5.116 2.525c2.488 0 4.525 1.409 4.525 3.14 0 1.732-2.024 3.14-4.525 3.14C2.615 8.806.59 7.398.59 5.666c0-1.731 2.04-3.14 4.525-3.14zM9.64 7.424v1.379H7.89a4.549 4.549 0 001.735-1.38h.015zm4.739 5.086h-.604v-1.527a.302.302 0 00-.603 0v1.53h-1.207v-.83a.302.302 0 00-.603 0v.83h-1.206v-.83a.302.302 0 00-.604 0v.83H8.346v-1.53a.302.302 0 00-.603 0v1.53H6.588v-.83a.302.302 0 00-.604 0v.83H4.778v-.83a.302.302 0 00-.604 0v.758C2.138 12.139.606 10.878.606 9.37V7.424c.863 1.18 2.561 1.982 4.525 1.982h9.249v3.104z"/></g><defs><clipPath id="clip0"><path fill="#fff" d="M0 0h15v15H0z"/></clipPath></defs></svg>
